X:1
T: Mrs Macleod of Macleod's Strathspey
C:R. Mackintosh
R:Strathspey
Q: 128
K:Gm
M:4/4
L:1/16
|:d2|gd3 d2c2 B3A GB3|Fc3 Af3 ca3 A^f3|gd3 d3c B3A GB3|A3e dcBA BG3 G3B|
gd3 d2c2 B3A GB3|Fc3 Af3 ca3 A^f3|gd3 d3c B3A GD3|EC3 D3^F G2G,2 G,2d2|
g3d bag^f Bd3 Bg3|f3c agf=e Fc3 A^f3|g3d bag^f gd3 ec3|dB3 dcBA B2G2 G2d2|
g3d bag^f Bd3 Bg3|f3c agf=e Fc3 A^f3|gb3 dg3 Bg3 ce3|d3B dcBA B2G2 G2:|
